X:522
M:C|
L:1/8
K:A
d2 d>f e<c c>A|B>c d/c/B/A/ A<F F||f|f/e/d/c/ a>c b>c a2|f/e/d/c/ ac f>ed>c|
d/e/f/g/ a>g f>e d>c|B>c d/c/B/A/ A<F F>A||

